X: 1
T: Lambert's
M: 6/8
L: 1/8
R: jig
K: Cmaj
|: ~E3 DED | CEG c2 G | cdc BGF | EGE FED |
 ~E3 DED | CEG c2 e | dcB GAB |1 ced c2 D :|2 ced c3 ||
|:e2 g fed | ecA GA_B | A2 F DEF | GEC EDC |
 e2 g fed | ecA GEG | ABc dBG |1 ced c3 :|2 ced c2 D ||
